X:410
T:Alborada de Maquilo
C:Trad
Z:Métodu de Gaita
M:3/4
Q:1/4=160
K:D
DE |: F2 FE FG | AF D2 FA |
GE C2 EG | F2 D2 DE |
F2 FE FG | AF D2 FA |
GE C2 E2 |[1 D2D2 DE :|[2  D4 FG |
|: A2 AG AB | cA F2 FB | GE C2 E2 |
A2 F2 FG | A2 AG AB | cA F2 FB |
GE C2 E2 |[1 D4 FG :|[2 D4 DE ||


